static/assets/images/icons/bell.svg

<svg width="256" height="256" viewBox="0 0 256 256" fill="none" xmlns="http://www.w3.org/2000/svg">
<path d="M51.0625 197.652C47.9281 197.652 45.3026 196.585 43.186 194.451C41.0694 192.316 40.0074 189.678 40 186.536C40 183.387 43.186 178.621 43.186 178.621L53.2047 164.217C59.0116 155.867 62.125 145.933 62.125 135.755V110.947C62.125 95.5702 66.7344 81.9087 75.9531 69.9627C85.1719 58.0167 97.1562 50.1873 111.906 46.4746V42.674C111.906 38.0423 113.521 34.1073 116.752 30.8688C119.982 27.6303 123.898 26.0074 128.5 26C133.109 26 137.029 27.6229 140.259 30.8688C143.49 34.1147 145.101 38.0497 145.094 42.674V46.4746C159.844 50.1799 171.828 58.0093 181.047 69.9627C190.266 81.9161 194.875 95.5776 194.875 110.947V135.747C194.875 145.931 197.991 155.869 203.803 164.22L213.825 178.621C213.825 178.621 217.007 183.394 217 186.536C217 189.686 215.938 192.327 213.814 194.462C211.69 196.596 209.064 197.659 205.937 197.652H51.0625Z" fill="black"/>
<path fill-rule="evenodd" clip-rule="evenodd" d="M128.827 231C121.321 231 114.898 228.274 109.558 222.822C105.165 218.338 102.576 213.102 101.79 207.117H155.867C155.087 213.096 152.501 218.331 148.109 222.822C142.769 228.283 136.341 231.009 128.827 231Z" fill="black"/>
</svg>

<svg xmlns="http://www.w3.org/2000/svg" fill="none" viewBox="0 0 256 256"><path fill="#000" d="M51.063 197.652q-4.702 0-7.877-3.201T40 186.536c0-3.149 3.186-7.915 3.186-7.915l10.019-14.404a49.85 49.85 0 0 0 8.92-28.462v-24.808q0-23.065 13.828-40.984 13.828-17.92 35.953-23.488v-3.801q0-6.948 4.846-11.805Q121.597 26.01 128.5 26q6.914 0 11.759 4.869t4.835 11.805v3.8q22.125 5.559 35.953 23.489t13.828 40.984v24.8a49.85 49.85 0 0 0 8.928 28.473l10.022 14.401s3.182 4.773 3.175 7.915q0 4.724-3.186 7.926-3.186 3.2-7.877 3.19z"/><path fill="#000" fill-rule="evenodd" d="M128.827 231q-11.259 0-19.269-8.178-6.59-6.727-7.768-15.705h54.077q-1.17 8.969-7.758 15.705-8.01 8.192-19.282 8.178" clip-rule="evenodd"/></svg>
